X: 108202
T: CUTTY SARK
Q: "Reel."
R:  Reel.
%R: reel
B: James Kerr "Merry Melodies" v.1 p.8 s.2 #2
Z: 2017 John Chambers <jc:trillian.mit.edu>
M: C
L: 1/8
K: G
uD |\
G2BA G2DB | G2(BG) dGBg |\
G2BA G2AB | cABG ADFA |\
G2BA G2DF | GABc dGBg |\
bagf g2(Bd) | cABG ADFA |]
dBg2 dBg2 | g2(Bc) dBdg |\
GABc (dB)g2 | edcB ADFA |\
dBg2 dBg2 | g2(Bc) dBdg |\
bagf egdb | caBg | ADFA |]

%%sep 1 1 500
%%sep 1 1 500

